svgs/sharp-solid/meter-droplet.svg

<svg xmlns="http://www.w3.org/2000/svg" viewBox="0 0 640 512"><!--! Font Awesome Pro 6.6.0 by @fontawesome - https://fontawesome.com License - https://fontawesome.com/license (Commercial License) Copyright 2024 Fonticons, Inc. --><path d="M256 512c53.7 0 103.5-16.5 144.6-44.7C390 447.2 384 424.3 384 400l0-2.1c0-28.3 8.2-56 23.7-79.7L499.6 177C466.3 74.3 369.8 0 256 0C114.6 0 0 114.6 0 256S114.6 512 256 512zM192 160l0 32 0 32-64 0 0-32 0-32 0-32 64 0 0 32zm96 0l0 32 0 32-64 0 0-32 0-32 0-32 64 0 0 32zm96 0l0 32 0 32-64 0 0-32 0-32 0-32 64 0 0 32zm144 32L434.5 335.6c-12.1 18.5-18.5 40.2-18.5 62.3l0 2.1c0 61.9 50.1 112 112 112s112-50.1 112-112l0-2.1c0-22.1-6.4-43.7-18.5-62.3L528 192z"/></svg>

<svg xmlns="http://www.w3.org/2000/svg" viewBox="0 0 640 512"><!--! Font Awesome Pro 6.4.0 by @fontawesome - https://fontawesome.com License - https://fontawesome.com/license (Commercial License) Copyright 2023 Fonticons, Inc. --><path d="M256 512c53.7 0 103.5-16.5 144.6-44.7C390 447.2 384 424.3 384 400v-2.1c0-28.3 8.2-56 23.7-79.7L499.6 177C466.3 74.3 369.8 0 256 0C114.6 0 0 114.6 0 256S114.6 512 256 512zM192 160v32 32H128V192 160 128h64v32zm96 0v32 32H224V192 160 128h64v32zm96 0v32 32H320V192 160 128h64v32zm144 32L434.5 335.6c-12.1 18.5-18.5 40.2-18.5 62.3V400c0 61.9 50.1 112 112 112s112-50.1 112-112v-2.1c0-22.1-6.4-43.7-18.5-62.3L528 192z"/></svg>
